X:1
T:Title
%%score { 1 | 2 }
L:1/8
M:3/4
K:Bb
V:1 treble nm="Grand Piano"
V:2 bass 
V:1
 z2 z2[Q:1/4=94] [B,D]>[CE] | [DF]3 [Fd] [Ec][DB] | [EG] [GB]3 [FA]>[EG] | [DF]3 [FB] [EA][EB] | %4
[M:2/4] [Fc]4 |[M:1/4] [Fd]>[Ec] |[M:3/4] [DB]3 [Fd] [Fc][FB] | [EG] [GB]3 [FA]G | FB d2 c2 | %9
[M:2/4] [DB]4 |[M:1/4] c>c |[M:3/4] c3 [Fc] [FB][Fc] | [Fd] [B,DB]3 [B,EB]>[B,FB] | %13
 [B,GB]3 [B,GB] [B,FA][B,EG] |[M:2/4] [DF]4 |[M:1/4] [Fd]>[Ec] |[M:3/4] [DB]3 [Fd] [Fc][FB] | %17
 [EG] [GB]3 [FA]G | FB B2 A2 |[M:2/4] [DB]4 |] %20
V:2
 z2 z2 [B,,F,]>[B,,F,] | [B,,B,]3 [B,,B,] [B,,B,][B,,B,] | [E,B,] [E,B,]3 [E,B,]>[E,B,] | %3
 [B,,B,]3 [D,F,] [C,F,][B,,B,] |[M:2/4] [F,A,]4 |[M:1/4] [B,,B,]>[B,,B,] | %6
[M:3/4] [B,,F,]3 [B,,B,] [C,A,][D,B,] | [E,B,] [E,B,]3 [E,B,][E,A,E] | %8
 [F,B,D][F,D] [F,B,F]2 [F,A,E]2 |[M:2/4] [B,,B,]4 |[M:1/4] [F,A,F]>[F,A,F] | %11
[M:3/4] [F,A,F]3 [E,A,] [D,B,][F,A,] | B, B,,3 C,>D, | E,3 E, E,E, |[M:2/4] [B,,B,]4 | %15
[M:1/4] [B,,B,]>[B,,B,] |[M:3/4] [B,,F,]3 [B,,B,] [C,A,][E,B,] | [E,B,] [E,B,]3 [E,B,][E,B,E] | %18
 [F,B,D][F,B,D] [F,DF]2 [F,CE]2 |[M:2/4] [B,,B,]4 |] %20

